public/style/workarea/images/icons/exe-edit-icon-green.svg

<svg fill="none" height="25" viewBox="0 0 25 25" width="25" xmlns="http://www.w3.org/2000/svg"><path d="m17.7427 3.48639c.2626-.26265.5744-.47099.9176-.61313.3431-.14214.7109-.2153 1.0824-.2153.3714 0 .7392.07316 1.0824.2153.3431.14214.6549.35048.9176.61313.2626.26264.471.57444.6131.9176s.2153.71096.2153 1.0824c0 .37143-.0732.73923-.2153 1.08239s-.3505.65496-.6131.91761l-13.50002 13.50001-5.5 1.5 1.5-5.5z" stroke="#0ba1a1" stroke-linecap="round" stroke-linejoin="round" stroke-width="2"/></svg>

<svg width="25" height="25" viewBox="0 0 25 25" fill="none" xmlns="http://www.w3.org/2000/svg">
<path d="M17.7427 3.48639C18.0053 3.22374 18.3171 3.0154 18.6603 2.87326C19.0034 2.73112 19.3712 2.65796 19.7427 2.65796C20.1141 2.65796 20.4819 2.73112 20.8251 2.87326C21.1682 3.0154 21.48 3.22374 21.7427 3.48639C22.0053 3.74903 22.2137 4.06083 22.3558 4.40399C22.4979 4.74715 22.5711 5.11495 22.5711 5.48639C22.5711 5.85782 22.4979 6.22562 22.3558 6.56878C22.2137 6.91194 22.0053 7.22374 21.7427 7.48639L8.24268 20.9864L2.74268 22.4864L4.24268 16.9864L17.7427 3.48639Z" stroke="#0BA1A1" stroke-width="2" stroke-linecap="round" stroke-linejoin="round"/>
</svg>
